Newaita/actions/24/mail-reply-custom.svg

<?xml version="1.0" encoding="UTF-8"?>
<svg xmlns="http://www.w3.org/2000/svg" xmlns:xlink="http://www.w3.org/1999/xlink" width="24pt" height="24pt" viewBox="0 0 24 24" version="1.1">
<g id="surface1">
<path style=" stroke:none;fill-rule:nonzero;fill:rgb(25.882354%,25.882354%,25.882354%);fill-opacity:1;" d="M 20.839844 3.164062 C 21.9375 3.164062 22.824219 4.050781 22.824219 5.148438 L 22.824219 19.535156 C 22.824219 20.636719 21.9375 21.523438 20.839844 21.523438 L 9.425781 21.523438 L 9.425781 20.03125 L 20.339844 20.03125 C 20.890625 20.03125 21.335938 19.589844 21.335938 19.039062 L 21.335938 5.800781 L 12.480469 13.726562 C 12.152344 14.015625 11.660156 14.015625 11.335938 13.726562 L 2.480469 5.800781 L 2.480469 13.085938 L 0.992188 13.085938 L 0.992188 5.148438 C 0.992188 4.050781 1.878906 3.164062 2.976562 3.164062 Z M 20.050781 4.652344 L 3.765625 4.652344 L 11.90625 11.9375 Z M 20.050781 4.652344 "/>
<path style=" stroke:none;fill-rule:nonzero;fill:rgb(100%,43.921569%,26.274511%);fill-opacity:1;" d="M 6.628906 14.121094 C 6.820312 14.113281 7.007812 14.183594 7.144531 14.316406 C 7.28125 14.449219 7.359375 14.628906 7.359375 14.820312 L 7.359375 20.777344 C 7.359375 21.027344 7.222656 21.261719 7.003906 21.386719 C 6.78125 21.511719 6.511719 21.507812 6.296875 21.378906 L 1.332031 18.402344 C 1.121094 18.273438 0.992188 18.046875 0.992188 17.800781 C 0.992188 17.550781 1.121094 17.324219 1.332031 17.195312 L 6.296875 14.21875 C 6.394531 14.160156 6.511719 14.125 6.628906 14.121094 Z M 5.953125 16.0625 L 3.0625 17.800781 L 5.953125 19.535156 Z M 5.953125 16.0625 "/>
</g>
</svg>

<svg xmlns="http://www.w3.org/2000/svg" width="32" height="32" viewBox="0 0 24 24"><path d="M20.84 3.164c1.098 0 1.984.887 1.984 1.984v14.387a1.983 1.983 0 0 1-1.984 1.988H9.426v-1.492H20.34c.55 0 .996-.441.996-.992V5.801l-8.856 7.926a.864.864 0 0 1-1.144 0L2.48 5.8v7.285H.992V5.148c0-1.097.887-1.984 1.985-1.984zm-.79 1.488H3.767l8.14 7.285zm0 0" fill="#424242"/><path d="M6.629 14.121a.7.7 0 0 1 .73.7v5.956a.704.704 0 0 1-1.063.602l-4.964-2.977a.705.705 0 0 1 0-1.207l4.965-2.976a.7.7 0 0 1 .332-.098zm-.676 1.941l-2.89 1.739 2.89 1.734zm0 0" fill="#ff7043"/></svg>
